static/img/services/terraform-cloud.svg

<svg width="202" height="33" viewBox="0 0 202 33" fill="none" xmlns="http://www.w3.org/2000/svg">
<path d="M158.741 25.7957L158.978 27.7139C157.492 28.0122 155.98 28.1644 154.464 28.1684C150.269 28.1684 148.314 26.4911 148.314 22.8957V14.9366C148.314 11.3321 150.269 9.65479 154.464 9.65479C155.981 9.66772 157.493 9.8291 158.978 10.1366L158.741 12.0548C157.353 11.8246 155.949 11.7 154.541 11.6821C151.569 11.6821 150.555 12.5411 150.555 15.073V22.8002C150.555 25.3321 151.569 26.1866 154.541 26.1866C155.949 26.1626 157.353 26.0319 158.741 25.7957Z" fill="#fff"/>
<path d="M162.692 9.06348V27.918H160.505V9.37711L162.692 9.06348Z" fill="#fff"/>
<path d="M174.809 15.9455C173.9 14.9955 172.513 14.5137 170.718 14.5137C166.082 14.5137 165.386 17.6 165.386 19.4409V23.2682C165.386 25.0864 166.082 28.1909 170.718 28.1909C172.536 28.1909 173.9 27.7091 174.809 26.7637C175.655 25.8015 176.095 24.5484 176.036 23.2682V19.4409C176.096 18.1607 175.656 16.9071 174.809 15.9455ZM173.85 23.35C173.85 25.3091 172.795 26.3046 170.704 26.3046C168.613 26.3046 167.536 25.3091 167.536 23.35V19.3546C167.536 17.4 168.595 16.4046 170.677 16.4046C172.759 16.4046 173.823 17.4 173.823 19.3546L173.85 23.35Z" fill="#fff"/>
<path d="M188.741 14.7864V27.9228H186.977L186.759 26.7546L186.704 26.7819C185.25 27.4819 182.959 28.1864 181.4 28.1864C179.495 28.1864 178.568 27.1046 178.568 24.8637V14.7864H180.754V24.841C180.754 25.7092 181.177 26.1137 182.077 26.1137C183.095 26.1137 185.132 25.5001 186.527 24.7773H186.554V14.7773L188.741 14.7864Z" fill="#fff"/>
<path d="M199.56 9.37711V14.9362H199.501C198.261 14.6879 197.001 14.551 195.737 14.5271C192.878 14.5271 191.487 15.9271 191.487 18.7998V24.1908C191.487 26.8817 192.737 28.1908 195.301 28.1908C196.868 28.2114 198.396 27.7056 199.642 26.7544L199.71 26.7089L199.905 27.9453H201.746V9.06348L199.56 9.37711ZM199.56 24.6726C198.52 25.622 197.184 26.1839 195.778 26.2635C194.051 26.2635 193.696 25.4317 193.696 24.1771V18.7862C193.696 17.1362 194.351 16.4317 195.892 16.4317C197.113 16.4641 198.329 16.5995 199.528 16.8362H199.569L199.56 24.6726Z" fill="#fff"/>
<path d="M44.754 12.8456H39.6404V9.79102H53.3313V12.8456H48.2176V28.1183H44.754V12.8456Z" fill="#fff"/>
<path d="M56.9495 25.6318C58.337 25.6253 59.7157 25.4124 61.0404 25L61.5632 27.5273C59.9804 28.0986 58.3096 28.3879 56.6268 28.3818C52.4223 28.3818 50.9632 26.4273 50.9632 23.2091V19.6636C50.9632 16.8318 52.2268 14.4409 56.5177 14.4409C60.8086 14.4409 61.7723 16.9409 61.7723 19.8273V22.6909H54.3541V23.3773C54.3541 25 54.9132 25.6318 56.9495 25.6318ZM54.3541 19.9955H58.6177V19.3318C58.6177 18.0682 58.2313 17.1909 56.5813 17.1909C54.9313 17.1909 54.3541 18.0682 54.3541 19.3318V19.9955Z" fill="#fff"/>
<path d="M70.7549 17.5182C69.5221 18.0755 68.3351 18.729 67.2049 19.4727V28.1182H63.8504V14.7136H66.6822L66.9049 16.2C67.9945 15.4602 69.1776 14.8686 70.4231 14.4409L70.7549 17.5182Z" fill="#fff"/>
<path d="M78.9455 17.5182C77.7146 18.0765 76.5292 18.73 75.4 19.4727V28.1182H72.0455V14.7136H74.8773L75.0955 16.2C76.1866 15.4602 77.3712 14.8687 78.6182 14.4409L78.9455 17.5182Z" fill="#fff"/>
<path d="M90.1639 28.1182H87.4139L87.1684 27.2091C85.9813 27.979 84.597 28.3894 83.1821 28.3909C80.7321 28.3909 79.6866 26.7136 79.6866 24.4046C79.6866 21.6773 80.873 20.6364 83.5912 20.6364H86.8093V19.2227C86.8093 17.7409 86.4003 17.2182 84.2548 17.2182C83.0064 17.2312 81.7624 17.3683 80.5412 17.6273L80.1275 15.0727C81.6229 14.6586 83.1668 14.4461 84.7184 14.4409C88.9275 14.4409 90.173 15.9227 90.173 19.2773L90.1639 28.1182ZM86.8093 23.0455H84.3548C83.2548 23.0455 82.9503 23.35 82.9503 24.3682C82.9503 25.2773 83.2548 25.7318 84.3139 25.7318C85.2004 25.7177 86.0693 25.4817 86.8412 25.0455L86.8093 23.0455Z" fill="#fff"/>
<path d="M100.477 11.6635C99.8441 11.5245 99.1984 11.4498 98.5501 11.4407C97.2319 11.4407 97.041 12.018 97.041 13.0362V14.7135H100.45L100.264 17.3817H97.0501V28.118H93.6955V17.3817H91.5501V14.7135H93.6955V12.8453C93.6955 10.068 94.9864 8.69075 97.9546 8.69075C98.9299 8.68717 99.901 8.81716 100.841 9.07711L100.477 11.6635Z" fill="#fff"/>
<path d="M107.018 28.3818C102.427 28.3818 101.173 25.8455 101.173 23.1182V19.7182C101.173 16.9909 102.409 14.4409 107 14.4409C111.591 14.4409 112.832 16.9682 112.832 19.7182V23.1182C112.85 25.8455 111.627 28.3818 107.018 28.3818ZM107.018 17.3C105.232 17.3 104.545 18.0955 104.545 19.6091V23.2091C104.545 24.7227 105.232 25.5227 107.018 25.5227C108.805 25.5227 109.495 24.7227 109.495 23.2091V19.6091C109.495 18.1182 108.809 17.3 107.018 17.3Z" fill="#fff"/>
<path d="M121.482 17.5182C120.251 18.0765 119.066 18.73 117.936 19.4727V28.1182H114.582V14.7136H117.414L117.632 16.2C118.729 15.4597 119.92 14.8682 121.173 14.4409L121.482 17.5182Z" fill="#fff"/>
<path d="M130.718 28.1182V18.7546C130.718 18.0409 130.414 17.6818 129.646 17.6818C128.877 17.6818 127.373 18.1773 126.155 18.8136V28.1182H122.796V14.7136H125.355L125.687 15.8409C127.356 15.0075 129.181 14.5307 131.046 14.4409C132.341 14.4409 133.137 14.9636 133.577 15.8682C135.252 15.0134 137.09 14.5268 138.968 14.4409C141.196 14.4409 141.991 16.0046 141.991 18.4V28.1182H138.637V18.7546C138.637 18.0409 138.332 17.6818 137.564 17.6818C136.334 17.8104 135.144 18.196 134.073 18.8136V28.1182H130.718Z" fill="#fff"/>
<path fill-rule="evenodd" clip-rule="evenodd" d="M9.63699 6.52271L18.3188 11.5363V21.5636L9.63699 16.55V6.52271Z" fill="#fff"/>
<path fill-rule="evenodd" clip-rule="evenodd" d="M19.2675 11.5363V21.5636L27.9538 16.55V6.52271L19.2675 11.5363Z" fill="#fff"/>
<path fill-rule="evenodd" clip-rule="evenodd" d="M0 0.92749V10.9548L8.68182 15.9684V5.94113L0 0.92749Z" fill="#fff"/>
<path fill-rule="evenodd" clip-rule="evenodd" d="M9.63699 27.6774L18.3188 32.6911V22.7274V22.6638L9.63699 17.6501V27.6774Z" fill="#fff"/>
</svg>

<svg width="202" height="33" fill="none" xmlns="http://www.w3.org/2000/svg"><path d="m158.741 25.796.237 1.918c-1.486.298-2.998.45-4.514.454-4.195 0-6.15-1.677-6.15-5.272v-7.96c0-3.604 1.955-5.281 6.15-5.281a23.24 23.24 0 0 1 4.514.482l-.237 1.918a27.832 27.832 0 0 0-4.2-.373c-2.972 0-3.986.86-3.986 3.391V22.8c0 2.532 1.014 3.387 3.986 3.387a27.866 27.866 0 0 0 4.2-.391ZM162.692 9.063v18.855h-2.187V9.378l2.187-.315ZM174.809 15.945c-.909-.95-2.296-1.431-4.091-1.431-4.636 0-5.332 3.086-5.332 4.927v3.827c0 1.818.696 4.923 5.332 4.923 1.818 0 3.182-.482 4.091-1.427a4.949 4.949 0 0 0 1.227-3.496v-3.827a4.939 4.939 0 0 0-1.227-3.495Zm-.959 7.405c0 1.96-1.055 2.955-3.146 2.955s-3.168-.996-3.168-2.955v-3.995c0-1.955 1.059-2.95 3.141-2.95s3.146.995 3.146 2.95l.027 3.995ZM188.741 14.786v13.137h-1.764l-.218-1.168-.055.027c-1.454.7-3.745 1.404-5.304 1.404-1.905 0-2.832-1.081-2.832-3.322V14.786h2.186v10.055c0 .868.423 1.273 1.323 1.273 1.018 0 3.055-.614 4.45-1.337h.027v-10l2.187.01ZM199.56 9.377v5.56h-.059c-1.24-.25-2.5-.386-3.764-.41-2.859 0-4.25 1.4-4.25 4.273v5.39c0 2.692 1.25 4 3.814 4a7.001 7.001 0 0 0 4.341-1.436l.068-.045.195 1.236h1.841V9.063l-2.186.314Zm0 15.296a6.123 6.123 0 0 1-3.782 1.59c-1.727 0-2.082-.831-2.082-2.086v-5.39c0-1.65.655-2.355 2.196-2.355a21.75 21.75 0 0 1 3.636.404h.041l-.009 7.837ZM44.754 12.846H39.64V9.79h13.691v3.055h-5.113v15.272h-3.464V12.846Z" fill="#fff"/><path d="M56.95 25.632A13.983 13.983 0 0 0 61.04 25l.523 2.527c-1.583.572-3.253.86-4.936.855-4.205 0-5.664-1.955-5.664-5.173v-3.545c0-2.832 1.264-5.223 5.555-5.223 4.29 0 5.254 2.5 5.254 5.386v2.864h-7.418v.686c0 1.623.56 2.255 2.596 2.255Zm-2.596-5.637h4.264v-.663c0-1.264-.387-2.141-2.037-2.141s-2.227.877-2.227 2.14v.665ZM70.755 17.518a25.768 25.768 0 0 0-3.55 1.955v8.645H63.85V14.714h2.832l.223 1.486a14.848 14.848 0 0 1 3.518-1.76l.332 3.078ZM78.945 17.518a25.984 25.984 0 0 0-3.545 1.955v8.645h-3.355V14.714h2.832l.219 1.486a14.883 14.883 0 0 1 3.522-1.76l.328 3.078ZM90.164 28.118h-2.75l-.246-.909a7.34 7.34 0 0 1-3.986 1.182c-2.45 0-3.495-1.677-3.495-3.986 0-2.728 1.186-3.769 3.904-3.769h3.218v-1.413c0-1.482-.409-2.005-2.554-2.005-1.249.013-2.493.15-3.714.41l-.413-2.555a17.421 17.421 0 0 1 4.59-.632c4.21 0 5.455 1.482 5.455 4.836l-.01 8.841Zm-3.355-5.072h-2.454c-1.1 0-1.405.304-1.405 1.322 0 .91.305 1.364 1.364 1.364a5.309 5.309 0 0 0 2.527-.686l-.032-2ZM100.477 11.664a9.613 9.613 0 0 0-1.927-.223c-1.318 0-1.509.577-1.509 1.595v1.678h3.409l-.186 2.668H97.05v10.736h-3.355V17.382H91.55v-2.669h2.145v-1.868c0-2.777 1.291-4.154 4.26-4.154.975-.004 1.946.126 2.886.386l-.364 2.587ZM107.018 28.382c-4.591 0-5.845-2.537-5.845-5.264v-3.4c0-2.727 1.236-5.277 5.827-5.277s5.832 2.527 5.832 5.277v3.4c.018 2.728-1.205 5.264-5.814 5.264Zm0-11.082c-1.786 0-2.473.796-2.473 2.31v3.6c0 1.513.687 2.313 2.473 2.313 1.787 0 2.477-.8 2.477-2.314v-3.6c0-1.49-.686-2.309-2.477-2.309ZM121.482 17.518a26.031 26.031 0 0 0-3.546 1.955v8.645h-3.354V14.714h2.832l.218 1.486a14.966 14.966 0 0 1 3.541-1.76l.309 3.078ZM130.718 28.118v-9.363c0-.714-.304-1.073-1.072-1.073-.769 0-2.273.495-3.491 1.132v9.304h-3.359V14.714h2.559l.332 1.127a13.442 13.442 0 0 1 5.359-1.4c1.295 0 2.091.523 2.531 1.427a13.185 13.185 0 0 1 5.391-1.427c2.228 0 3.023 1.564 3.023 3.959v9.718h-3.354v-9.363c0-.714-.305-1.073-1.073-1.073a8.827 8.827 0 0 0-3.491 1.132v9.304h-3.355Z" fill="#fff"/><path fill-rule="evenodd" clip-rule="evenodd" d="m9.637 6.523 8.682 5.013v10.028L9.637 16.55V6.523ZM19.267 11.536v10.028l8.687-5.014V6.523l-8.687 5.013ZM0 .927v10.028l8.682 5.013V5.941L0 .927ZM9.637 27.677l8.682 5.014V22.664L9.637 17.65v10.027Z" fill="#fff"/></svg>
